X: 6669
T: Celestial
R: polka
M: 2/4
K: Bminor
"Bm"F3/2B/ dB cBAc|"G"BGGG DGBG|
"D"A3/2F/ EF DFEB,|"A7"A,EEE CEGE|
"Bm"F3/2B/ dB cBAc|"G"BGGG DGBG|
"A"AAec decd|1 "A7"ec/d/ c/B/A ED/E/ DG:|2
"A7"ec/d/ c/B/A ED/E D/F|:"Em"G2 E G2 E AF|
"G"B2 G B2 G cA|"Bm"d2 B d2 B fe|
"A7"c2 c/d/c/B/ AFFF|"Em"G2 E G2 E AF|"G"B2 G B2 B cA|1
"Bm"d2 B d2 B f2-|"A7"ff/g/ fe cAFA:|2 "Bm"d2 B d2 B f2-|"F#7"ff/g/ fe ^a4|
V:2

